usr/share/icons/biglinux-icons-material-dark/symbolic/actions/edit-select-all-layers.svg

<svg xmlns="http://www.w3.org/2000/svg" viewBox="0 0 16 16">
<defs id="defs3051">
<style id="current-color-scheme" type="text/css">
.ColorScheme-Contrast{color:#dedede}
</style>
</defs>
<path d="M2 2v3h1V3h2V2zm9 0v1h2v2h1V2zM7 5 4 8h5l3-3zm0 4-3 3h5l3-3zm-5 2v3h3v-1H3v-2zm11 0v2h-2v1h3v-3z" class="ColorScheme-Contrast" style="fill:currentColor;fill-opacity:1;stroke:none"/>
</svg>

<svg xmlns="http://www.w3.org/2000/svg" viewBox="0 0 16 16">
  <defs id="defs3051">
    <style type="text/css" id="current-color-scheme">
      .ColorScheme-Text {
        color:#dedede;
      }
      </style>
  </defs>
 <path style="fill:currentColor;fill-opacity:1;stroke:none" 
     d="M 2 2 L 2 5 L 3 5 L 3 3 L 5 3 L 5 2 L 3 2 L 2 2 z M 11 2 L 11 3 L 13 3 L 13 4 L 13 5 L 14 5 L 14 3 L 14 2 L 11 2 z M 7 5 L 4 8 L 9 8 L 12 5 L 7 5 z M 7 9 L 4 12 L 9 12 L 12 9 L 7 9 z M 2 11 L 2 12 L 2 13 L 2 14 L 5 14 L 5 13 L 3 13 L 3 12 L 3 11 L 2 11 z M 13 11 L 13 12 L 13 13 L 12 13 L 11 13 L 11 14 L 12 14 L 13 14 L 14 14 L 14 12 L 14 11 L 13 11 z "
     class="ColorScheme-Text"
     />
</svg>
